assets/mdnwebdocs/original.svg

<svg viewBox="0 0 24 24" xmlns="http://www.w3.org/2000/svg"><path d="m21.538 1.1-6.745 21.8h-2.77l6.747-21.8zm2.462 0v21.8h-2.462v-21.8zm-12 0v21.8h-2.462v-21.8zm-2.462 0-6.768 21.8h-2.77l6.746-21.8z"/></svg>

<svg xmlns="http://www.w3.org/2000/svg" viewBox="0 0 24 24"><path d="m21.538 1.1-6.745 21.8h-2.77L18.77 1.1zM24 1.1v21.8h-2.462V1.1zm-12 0v21.8H9.538V1.1zm-2.462 0L2.77 22.9H0L6.746 1.1z"/></svg>
